X:0736
T:Lady Grace Douglas's Reel.
M:C|
L:1/8
Q:1/2=108
I: :: :|
Z:Jack Campin * www.campin.me.uk * 2009
K:D
b|a2    fd e2cA|d2AF GEEb|a2    fd e2cA|dABG FDD:|
G|F/G/A Ad BdAd|GdFd eEEG|F/G/A Ad BdAd|FAdA FDDG|
  F/G/A Ad BdAd|GdFd eEEG|FAdf     eAdb|afeg fdd|]

